src/assets/images/banner_bg.svg

<svg width="212" height="378" viewBox="0 0 212 378" fill="none" xmlns="http://www.w3.org/2000/svg">
<path fill-rule="evenodd" clip-rule="evenodd" d="M136.386 0H196C204.837 0 212 7.16344 212 16V251.614L187.402 276.212C186.352 277.263 184.648 277.263 183.598 276.212L23.788 116.402C22.7373 115.352 22.7373 113.648 23.788 112.598L136.386 0Z" fill="#57D5F3"/>
<path fill-rule="evenodd" clip-rule="evenodd" d="M73.2861 0H78.2927C77.9595 5.94707 78.2712 11.5899 79.19 16.9748C80.8031 26.4288 84.2619 35.1033 89.5831 43.8201C93.752 50.6494 98.2625 56.4953 106.492 66.2245C106.863 66.6634 107.243 67.1123 107.746 67.7053C108.373 68.4451 108.719 68.8527 109 69.1846C110.02 70.3888 110.767 71.2726 111.499 72.1439C120.608 82.9829 125.757 90.1299 129.74 98.331C134.799 108.752 136.873 119.439 135.671 131.382C132.924 158.667 112.806 192.641 70.3453 238.509C22.3663 290.338 6.10093 336.794 21.7599 378H16.2776C0.961527 335.696 17.6925 288.027 66.6762 235.112C108.465 189.97 128.082 156.841 130.696 130.881C131.802 119.889 129.908 110.126 125.242 100.515C121.486 92.7793 116.533 85.9062 107.672 75.3606C106.945 74.4956 106.202 73.6165 105.185 72.4171C104.905 72.0858 104.56 71.6787 103.932 70.9385C103.428 70.3442 103.047 69.894 102.674 69.4536C94.2891 59.5401 89.6543 53.533 85.3154 46.4253C79.6803 37.1941 75.9874 27.9328 74.2612 17.8157C73.2927 12.1395 72.9562 6.21605 73.2861 0ZM121.383 0H126.816C123.022 8.10664 123.447 16.7902 127.5 26.4826C131.197 35.3233 137.796 45.0194 148.201 57.5015C154.135 64.6197 177.535 90.8669 179.519 93.149C192.917 108.563 203.625 122.297 212 135.474V145.112C203.27 130.044 191.385 114.422 175.745 96.4292C173.81 94.2024 150.358 67.8972 144.36 60.703C133.662 47.8695 126.819 37.8144 122.887 28.4116C118.585 18.1237 117.963 8.72905 121.383 0ZM212 275.67V285.339C209.542 289.228 206.888 293.14 204.036 297.078C182.471 326.853 167.9 353.814 160.329 378H155.18C162.795 352.843 177.728 324.878 199.987 294.145C204.5 287.913 208.5 281.757 212 275.67Z" fill="white"/>
<path fill-rule="evenodd" clip-rule="evenodd" d="M119.993 188.901L147.588 180.988C148.079 180.847 148.592 181.131 148.733 181.623L159.964 220.789C160.105 221.281 159.821 221.794 159.329 221.935L131.734 229.848C131.243 229.989 130.958 230.501 131.099 230.993L139.012 258.588C139.153 259.079 138.869 259.592 138.377 259.733L99.2105 270.964C98.7189 271.105 98.2061 270.821 98.0651 270.329L90.1524 242.734C90.0115 242.243 89.4987 241.958 89.007 242.099L61.4124 250.012C60.9207 250.153 60.4079 249.869 60.267 249.377L49.0361 210.21C48.8951 209.719 49.1794 209.206 49.671 209.065L77.2657 201.152C77.7573 201.011 78.0416 200.499 77.9006 200.007L69.988 172.412C69.847 171.921 70.1312 171.408 70.6229 171.267L109.79 160.036C110.281 159.895 110.794 160.179 110.935 160.671L118.848 188.266C118.989 188.757 119.501 189.042 119.993 188.901Z" fill="#FFF1A1"/>
<path fill-rule="evenodd" clip-rule="evenodd" d="M143.308 226.529L131.734 229.847C131.243 229.988 130.958 230.501 131.099 230.993L139.012 258.588C139.153 259.079 138.869 259.592 138.377 259.733L99.2105 270.964C98.7189 271.105 98.2061 270.82 98.0651 270.329L90.1524 242.734C90.0115 242.243 89.4987 241.958 89.007 242.099L85.4192 243.128C83.9325 236.924 81.6163 231.549 78.0243 227.553C71.4453 220.235 62.2311 214.131 53.4301 207.987L77.2657 201.152C77.7573 201.011 78.0416 200.499 77.9006 200.007L69.988 172.412C69.847 171.921 70.1312 171.408 70.6229 171.267L98.3213 163.324C93.5697 192.005 100.676 209.51 143.308 226.529L143.308 226.529Z" fill="#FEE245"/>
<path fill-rule="evenodd" clip-rule="evenodd" d="M23.2693 288.112L45.8885 310.731C46.0372 310.879 46.0372 311.121 45.8885 311.269L23.2693 333.888C23.1206 334.037 22.8794 334.037 22.7307 333.888L0.111538 311.269C-0.0371793 311.121 -0.0371793 310.879 0.111538 310.731L22.7307 288.112C22.8794 287.963 23.1206 287.963 23.2693 288.112Z" fill="#FFF1A1"/>
<path fill-rule="evenodd" clip-rule="evenodd" d="M68.0937 338.039L75.9612 345.906C76.0129 345.958 76.0129 346.042 75.9612 346.094L68.0937 353.961C68.0419 354.013 67.9581 354.013 67.9063 353.961L60.0388 346.094C59.9871 346.042 59.9871 345.958 60.0388 345.906L67.9063 338.039C67.9581 337.987 68.0419 337.987 68.0937 338.039Z" fill="#FFF1A1"/>
</svg>

<svg width="212" height="378" fill="none" xmlns="http://www.w3.org/2000/svg"><path fill-rule="evenodd" clip-rule="evenodd" d="M136.386 0H196c8.837 0 16 7.163 16 16v235.614l-24.598 24.598a2.689 2.689 0 0 1-3.804 0l-159.81-159.81a2.69 2.69 0 0 1 0-3.804L136.386 0z" fill="#57D5F3"/><path fill-rule="evenodd" clip-rule="evenodd" d="M73.286 0h5.007c-.334 5.947-.022 11.59.897 16.975 1.613 9.454 5.072 18.128 10.393 26.845 4.169 6.83 8.68 12.675 16.909 22.405l1.254 1.48 1.254 1.48a944.39 944.39 0 0 1 2.499 2.959c9.109 10.839 14.258 17.986 18.241 26.187 5.059 10.421 7.133 21.108 5.931 33.051-2.747 27.285-22.865 61.259-65.326 107.127C22.366 290.338 6.101 336.794 21.76 378h-5.482c-15.316-42.304 1.415-89.973 50.398-142.888 41.789-45.142 61.406-78.271 64.02-104.231 1.106-10.992-.788-20.755-5.454-30.366-3.756-7.736-8.709-14.609-17.57-25.154-.727-.865-1.47-1.745-2.487-2.944l-1.253-1.478-1.258-1.485c-8.385-9.914-13.02-15.921-17.359-23.029-5.635-9.23-9.328-18.492-11.054-28.61C73.293 12.14 72.956 6.217 73.286 0zm48.097 0h5.433c-3.794 8.107-3.369 16.79.684 26.483 3.697 8.84 10.296 18.536 20.701 31.018 5.934 7.119 29.334 33.366 31.318 35.648 13.398 15.414 24.106 29.148 32.481 42.325v9.638c-8.73-15.068-20.615-30.69-36.255-48.683-1.935-2.227-25.387-28.532-31.385-35.726-10.698-12.834-17.541-22.889-21.473-32.291-4.302-10.288-4.924-19.683-1.504-28.412zM212 275.67v9.669a224.696 224.696 0 0 1-7.964 11.739C182.471 326.853 167.9 353.814 160.329 378h-5.149c7.615-25.157 22.548-53.122 44.807-83.855 4.513-6.232 8.513-12.388 12.013-18.475z" fill="#fff"/><path fill-rule="evenodd" clip-rule="evenodd" d="M119.993 188.901l27.595-7.913a.926.926 0 0 1 1.145.635l11.231 39.166a.926.926 0 0 1-.635 1.146l-27.595 7.913a.926.926 0 0 0-.635 1.145l7.913 27.595a.926.926 0 0 1-.635 1.145L99.21 270.964a.926.926 0 0 1-1.145-.635l-7.913-27.595a.926.926 0 0 0-1.145-.635l-27.595 7.913a.926.926 0 0 1-1.145-.635l-11.23-39.167a.926.926 0 0 1 .634-1.145l27.595-7.913a.925.925 0 0 0 .635-1.145l-7.913-27.595a.926.926 0 0 1 .635-1.145l39.167-11.231a.926.926 0 0 1 1.145.635l7.913 27.595a.926.926 0 0 0 1.145.635z" fill="#FFF1A1"/><path fill-rule="evenodd" clip-rule="evenodd" d="M143.308 226.529l-11.574 3.318a.927.927 0 0 0-.635 1.146l7.913 27.595a.926.926 0 0 1-.635 1.145L99.21 270.964a.927.927 0 0 1-1.145-.635l-7.913-27.595a.926.926 0 0 0-1.145-.635l-3.588 1.029c-1.486-6.204-3.803-11.579-7.395-15.575-6.579-7.318-15.793-13.422-24.594-19.566l23.836-6.835a.925.925 0 0 0 .635-1.145l-7.913-27.595a.926.926 0 0 1 .635-1.145l27.698-7.943c-4.751 28.681 2.355 46.186 44.987 63.205z" fill="#FEE245"/><path fill-rule="evenodd" clip-rule="evenodd" d="M23.27 288.112l22.619 22.619a.38.38 0 0 1 0 .538l-22.62 22.619a.38.38 0 0 1-.538 0L.11 311.269a.38.38 0 0 1 0-.538l22.62-22.619a.38.38 0 0 1 .538 0zM68.094 338.039l7.867 7.867a.133.133 0 0 1 0 .188l-7.867 7.867a.132.132 0 0 1-.188 0l-7.867-7.867a.133.133 0 0 1 0-.188l7.867-7.867a.132.132 0 0 1 .188 0z" fill="#FFF1A1"/></svg>
